icons/solid/user-minus.svg

<svg width="24" height="24" viewBox="0 0 24 24" fill="none" xmlns="http://www.w3.org/2000/svg">
<path d="M10.375 2.25C8.09683 2.25 6.25 4.09683 6.25 6.375C6.25 8.65317 8.09683 10.5 10.375 10.5C12.6532 10.5 14.5 8.65317 14.5 6.375C14.5 4.09683 12.6532 2.25 10.375 2.25Z" fill="#0F172A"/>
<path d="M10.375 12C6.43997 12 3.25 15.19 3.25 19.125C3.25 19.1657 3.25034 19.2064 3.25103 19.2469C3.25537 19.5054 3.39256 19.7435 3.61406 19.8768C5.5893 21.0661 7.90343 21.75 10.375 21.75C12.8466 21.75 15.1607 21.0661 17.1359 19.8768C17.3574 19.7435 17.4946 19.5054 17.499 19.2469C17.4996 19.2074 17.5 19.1674 17.5 19.1276V19.125C17.5 15.19 14.31 12 10.375 12Z" fill="#0F172A"/>
<path d="M16 9.75C15.5858 9.75 15.25 10.0858 15.25 10.5C15.25 10.9142 15.5858 11.25 16 11.25H22C22.4142 11.25 22.75 10.9142 22.75 10.5C22.75 10.0858 22.4142 9.75 22 9.75H16Z" fill="#0F172A"/>
</svg>

<svg xmlns="http://www.w3.org/2000/svg" viewBox="0 0 24 24" fill="currentColor" aria-hidden="true" data-slot="icon">
  <path d="M10.375 2.25a4.125 4.125 0 1 0 0 8.25 4.125 4.125 0 0 0 0-8.25ZM10.375 12a7.125 7.125 0 0 0-7.124 7.247.75.75 0 0 0 .363.63 13.067 13.067 0 0 0 6.761 1.873c2.472 0 4.786-.684 6.76-1.873a.75.75 0 0 0 .364-.63l.001-.12v-.002A7.125 7.125 0 0 0 10.375 12ZM16 9.75a.75.75 0 0 0 0 1.5h6a.75.75 0 0 0 0-1.5h-6Z"/>
</svg>
